X:583
T:Reel 583
M:4/4
K:Gmaj
L:1/8
ge|d>G (3GGG dedB|d>G (3GGG d2ef|d>G (3GGG deeB|cBAB c2:|gf|e>A (3AAA eAge|c>A (3AAA e2de|f>g (3gfg fgaf|edef g2fd|e>g (3gfg fdef|g>d (3GAG d2gf|e>d (3BAG e>A (3AAA |dBcd G2|
